X: 32247
T: Pibroch MacKenzie's Farewell
R: march
M: 
K: Dmajor
M:9/8
|:A|d>fa c3 B>ge|c>ag f3 a3|afd B3 e2 f|g>ea f3 f2 A|
d>fa c3 B>ge|c>ag f3 a3|a>fd G3 B2 e|c>Bc d3 d2:|
|:f/g/|a>^ga f3 A>ef|=g>fg e3 c2 e|A>ce e3 e2 f|g>ea f3 f2 A|
d>fa c3 B>ge|c>ag f3 a3|a>fd G3 B2 e|c>Bc d3 d2:|
|:f|A>df A3 Adf|a>fd d3 B3|G>ed c3 A>ce|g>fe f3 f2 a|
A>df A3 Adf|a>fd d3 B3|a>fd G3 B2 e|c>Bc d3 d2:|
|:f/g/|a>ga f3 afd|a>fd c3 B>ef|g>fg e3 A>ce|e>a^g a2 f2 A|
d>fa c3 B>=ge|c>ag f3 a3|a>fd G3 B2 e|c>Bc d3 d2:|

